X: 2
T: The Pride Of Petravore
R: hornpipe
M: 4/4
L: 1/8
K: Emin
|: B,D | E3 F G3 A | B>cBA G2 E2 | D2 DE FG/F/ FG | AFDF AB/A/ GF |E2 EF G2 GA | B>cBA GFGA | B2Bc BAGF | E2 (3FED E2 :||: (3Bcd | e2 e/e/e e2 f>e | dBGA B4 | B>AFG A4 | A>GEF GFGB |e2 ef/e/ e2 ge | dBGA B2 GA | B2Bc BAGF | E2 ED E2 :|


Tune 82	Setting 82

